assets/images/footer-mail.svg

<svg width="27" height="27" viewBox="0 0 27 27" fill="none" xmlns="http://www.w3.org/2000/svg">
<path fill-rule="evenodd" clip-rule="evenodd" d="M13.5 27C6.04416 27 0 20.9558 0 13.5C0 6.04416 6.04416 0 13.5 0C20.9558 0 27 6.04416 27 13.5C27 20.9558 20.9558 27 13.5 27ZM13.6881 12.7423C14.7935 12.7423 20.1681 9.71998 20.1681 9.71998L20.1768 9.17998C20.1768 8.58382 19.6929 8.09998 19.0951 8.09998H8.28111C7.68387 8.09998 7.20003 8.58382 7.20003 9.17998V9.66112C7.20003 9.66112 12.6335 12.7423 13.6881 12.7423ZM7.20867 11.3403C7.20813 11.3403 12.6335 14.2277 13.6881 14.2277C14.8443 14.2277 20.1681 11.3403 20.1681 11.3403L20.1768 17.8203C20.1768 18.4165 19.6929 18.9003 19.0951 18.9003H8.28111C7.68441 18.9003 7.20003 18.4165 7.20003 17.8203L7.20867 11.3403Z" fill="white"/>
</svg>

<svg xmlns="http://www.w3.org/2000/svg" width="27" height="27" fill="none"><path fill="#fff" fill-rule="evenodd" d="M13.5 27C6.044 27 0 20.956 0 13.5S6.044 0 13.5 0 27 6.044 27 13.5 20.956 27 13.5 27Zm.188-14.258c1.105 0 6.48-3.022 6.48-3.022l.009-.54a1.08 1.08 0 0 0-1.082-1.08H8.281A1.08 1.08 0 0 0 7.2 9.18v.481s5.433 3.081 6.488 3.081Zm-6.48-1.402s5.425 2.888 6.48 2.888c1.156 0 6.48-2.888 6.48-2.888l.009 6.48a1.08 1.08 0 0 1-1.082 1.08H8.281A1.08 1.08 0 0 1 7.2 17.82l.009-6.48Z" clip-rule="evenodd"/></svg>
